packages/icons/src/lib/svgs/mastercard.svg

<svg
        aria-hidden="true"
        data-testid="test-icon"
        fill="currentColor"
        
        viewBox="0 0 36 32"
        
        xmlns="http://www.w3.org/2000/svg"
        
    >
        <title>mastercard icon</title>
        <path
            d="M21.607 7.61462H12.3606V24.3869H21.607V7.61462Z"
            fill="#FF5F00"
        />
        <path
            d="M12.9553 16.0003C12.9538 14.385 13.3164 12.7905 14.0157 11.3376C14.7149 9.88471 15.7325 8.61142 16.9913 7.61415C15.4325 6.37731 13.5603 5.60813 11.5888 5.39454C9.61729 5.18095 7.62604 5.53155 5.84263 6.40629C4.05921 7.28103 2.55559 8.64462 1.50362 10.3412C0.451656 12.0377 -0.106201 13.9988 -0.106201 16.0003C-0.106201 18.0017 0.451656 19.9628 1.50362 21.6594C2.55559 23.3559 4.05921 24.7195 5.84263 25.5942C7.62604 26.469 9.61729 26.8196 11.5888 26.606C13.5603 26.3924 15.4325 25.6232 16.9913 24.3864C15.7325 23.3891 14.715 22.1158 14.0157 20.6629C13.3165 19.21 12.9538 17.6156 12.9553 16.0003Z"
            fill="#EB001B"
        />
        <path
            d="M34.0814 16.0003C34.0815 18.0017 33.5237 19.9628 32.4718 21.6593C31.4199 23.3559 29.9163 24.7195 28.1329 25.5942C26.3495 26.469 24.3583 26.8196 22.3868 26.606C20.4154 26.3924 18.5432 25.6232 16.9844 24.3864C18.2421 23.3881 19.2589 22.1146 19.958 20.6619C20.6572 19.2093 21.0204 17.6153 21.0204 16.0003C21.0204 14.3852 20.6572 12.7913 19.958 11.3386C19.2589 9.88592 18.2421 8.61243 16.9844 7.61415C18.5432 6.3773 20.4154 5.60812 22.3868 5.39454C24.3583 5.18095 26.3495 5.53157 28.1329 6.40632C29.9163 7.28107 31.4199 8.64465 32.4718 10.3412C33.5237 12.0378 34.0815 13.9988 34.0814 16.0003Z"
            fill="#F79E1B"
        />
        <path
            d="M33.0867 22.6121V22.2688H33.2238V22.1988H32.8745V22.2688H33.0117V22.6121H33.0867ZM33.7649 22.6121V22.1981H33.6578L33.5347 22.4829L33.4115 22.1981H33.3043V22.6121H33.3799V22.2998L33.4954 22.5691H33.5738L33.6893 22.2992V22.6121H33.7649Z"
            fill="#F79E1B"
        />
    </svg>

<svg aria-hidden="true" data-testid="test-icon" fill="currentColor" viewBox="0 0 36 32" xmlns="http://www.w3.org/2000/svg"><path d="M21.607 7.615h-9.246v16.772h9.246V7.615z" fill="#FF5F00"/><path d="M12.955 16a10.73 10.73 0 011.06-4.662 10.63 10.63 0 012.976-3.724A10.481 10.481 0 005.842 6.406a10.602 10.602 0 00-4.338 3.935 10.74 10.74 0 00-1.61 5.66c0 2 .558 3.962 1.61 5.658a10.602 10.602 0 004.339 3.935 10.48 10.48 0 0011.148-1.208 10.631 10.631 0 01-2.975-3.723A10.731 10.731 0 0112.956 16z" fill="#EB001B"/><path d="M34.081 16a10.74 10.74 0 01-1.61 5.66 10.6 10.6 0 01-4.338 3.934 10.48 10.48 0 01-11.149-1.208 10.65 10.65 0 002.974-3.724 10.75 10.75 0 000-9.323 10.65 10.65 0 00-2.974-3.725 10.48 10.48 0 0111.148-1.208 10.602 10.602 0 014.34 3.935 10.74 10.74 0 011.61 5.66zM33.087 22.612v-.343h.137v-.07h-.35v.07h.138v.343h.075zm.678 0v-.414h-.107l-.123.285-.123-.285h-.108v.414h.076V22.3l.115.27h.079l.115-.27v.312h.076z" fill="#F79E1B"/></svg>
